!!!CDT: ~1450-~1517
!!!COM: Anonymous
!!!OTL: Ce n'est pas sans
!!!AGN: Song; Chanson
!!!SCT: Ano0510
!!!SCA: Ano0510
!!!voices: 3
**kern	**text	**kern	**text	**kern	**text
*part3	*part3	*part2	*part2	*part1	*part1
*staff3	*staff3	*staff2	*staff2	*staff1	*staff1
*I"Bassus	*	*I"Tenor	*	*I"Superius	*
*I'B	*	*I'T	*	*I'S	*
*clefF4	*	*clefG2	*	*clefG2	*
*k[b-]	*	*k[b-]	*	*k[b-]	*
*M2/2	*	*M2/2	*	*M2/2	*
*met(C|)	*	*met(C|)	*	*met(C|)	*
=1	=1	=1	=1	=1	=1
1G	Ce	1r	.	1r	.
=2	=2	=2	=2	=2	=2
2A	n'est	1r	.	1r	.
2A	pas	.	.	.	.
=3	=3	=3	=3	=3	=3
2B-y	sans...	1r	.	1g	Ce
4A	.	.	.	.	.
4G	.	.	.	.	.
=4	=4	=4	=4	=4	=4
1F	.	1r	.	2a	n'est
.	.	.	.	2a	pas
=5	=5	=5	=5	=5	=5
*lig	*	*	*	*	*
2G	.	1g	Ce	2.b-y	sans...
2B-y	.	.	.	.	.
.	.	.	.	8aL	.
.	.	.	.	8gJ	.
!!LO:LB:g=original
=6	=6	=6	=6	=6	=6
1A	.	2a	n'est	2f	.
.	.	2a	pas	2f	.
*Xlig	*	*	*	*	*
=7	=7	=7	=7	=7	=7
*lig	*	*	*	*	*
1G	.	2.b-y	sans...	2g	.
.	.	.	.	4dd	.
.	.	8aL	.	4ee-i	.
.	.	8gJ	.	.	.
=8	=8	=8	=8	=8	=8
1d	.	2f	.	4dd	.
.	.	.	.	8ccL	.
.	.	.	.	8b-yJ	.
.	.	2f	.	2a	.
*Xlig	*	*	*	*	*
=9	=9	=9	=9	=9	=9
*lig	*	*	*	*lig	*
1G	.	2g	.	2b-y	.
.	.	4.dd	.	2g	.
.	.	8ee-i	.	.	.
=10	=10	=10	=10	=10	=10
1d	.	4dd	.	1f	.
.	.	8ccL	.	.	.
.	.	8b-yJ	.	.	.
.	.	2a	.	.	.
*Xlig	*	*	*	*Xlig	*
=11	=11	=11	=11	=11	=11
*lig	*	*lig	*	*	*
1G	.	2b-y	.	2r	.
.	.	2g	.	[2b-y	.
!!LO:LB:g=original
=12	=12	=12	=12	=12	=12
1B-y	.	1f	.	4b-]	.
.	.	.	.	4cc	.
.	.	.	.	2dd	.
*Xlig	*	*Xlig	*	*	*
=13	=13	=13	=13	=13	=13
1r	.	2r	.	2g	.
.	.	2g	.	4b-y	.
.	.	.	.	4cc	.
=14	=14	=14	=14	=14	=14
[1G	.	4b-y	.	2dd	.
.	.	4cc	.	.	.
.	.	2dd	.	2g	.
=15	=15	=15	=15	=15	=15
1G]	.	2g	.	2b-y	.
*	*	*lig	*	*	*
.	.	2b-y	.	2g	.
=16	=16	=16	=16	=16	=16
*lig	*	*	*	*	*
2d	.	2a	.	4r	.
.	.	.	.	4f	.
*	*	*Xlig	*	*	*
2G	.	2g	.	4.b-y	.
.	.	.	.	8cc	.
*Xlig	*	*	*	*	*
=17	=17	=17	=17	=17	=17
*lig	*	*lig	*	*	*
1d	.	1f	.	1a	.
!!LO:LB:g=original
=18	=18	=18	=18	=18	=18
1G	.	1g	.	2r	.
.	.	.	.	2b-y	.
*Xlig	*	*Xlig	*	*	*
=19	=19	=19	=19	=19	=19
*lig	*	*	*	*	*
2A	.	2r	.	2cc	.
2c	.	2a	.	2cc	.
*Xlig	*	*	*	*	*
=20	=20	=20	=20	=20	=20
*	*	*	*	*col	*
2B-y	.	2b-y	.	2.dd	.
4A	.	2b-y	.	.	.
4G	.	.	.	8ccL	.
.	.	.	.	8b-yJ	.
*	*	*	*	*Xcol	*
=21	=21	=21	=21	=21	=21
1F	.	2cc	.	2.a	.
.	.	2cc	.	.	.
.	.	.	.	4g	.
=22	=22	=22	=22	=22	=22
2.B-y	.	2dd	.	2.b-y	.
.	.	2dd	.	.	.
4c	.	.	.	8aL	.
.	.	.	.	8gJ	.
=23	=23	=23	=23	=23	=23
*lig	*	*lig	*	*	*
1d	.	1a	.	2.f#i	.
.	.	.	.	4e	.
!!LO:PB:g=original
=24	=24	=24	=24	=24	=24
*	*	*	*	*lig	*
1G	.	[1g	.	2g	.
.	.	.	.	[2b-y	.
*Xlig	*	*	*	*	*
=25	=25	=25	=25	=25	=25
2.B-y	.	1g]	.	4b-]	.
*	*	*Xlig	*	*Xlig	*
.	.	.	.	4cc	.
.	.	.	.	4dd	.
4A	.	.	.	4ee	.
=26	=26	=26	=26	=26	=26
*lig	*	*lig	*	*	*
2F	.	2a	.	2ff	.
2B-y	.	2g	.	4ee	.
.	.	.	.	[4dd	.
*Xlig	*	*Xlig	*	*	*
=27	=27	=27	=27	=27	=27
*lig	*	*lig	*	*	*
2c	.	2e	.	4dd]	.
.	.	.	.	4cc	.
2A	.	2c	.	[2cc	.
=28	=28	=28	=28	=28	=28
1G	.	1d	.	2cc]	.
.	.	.	.	2bnXi	.
*Xlig	*	*	*	*	*
=29	=29	=29	=29	=29	=29
*lig	*	*	*	*lig	*
2A	.	1c	.	2cc	.
2c	.	.	.	2ee	.
!!LO:LB:g=original
=30	=30	=30	=30	=30	=30
!	!	!LO:TX:a:t=[segno]	!	!LO:TX:a:t=[segno]	!
[1G	.	1g	.	1dd	.
*	*	*Xlig	*	*Xlig	*
=31	=31	=31	=31	=31	=31
*	*	*	*	*lig	*
2G]	.	1r	.	2b-y	.
*Xlig	*	*	*	*	*
2D	.	.	.	2a	.
!!LO:LB:g=original
*	*	*	*	*Xlig	*
=32	=32	=32	=32	=32	=32
*lig	*	*lig	*	*lig	*
2E	.	2b-y	.	2g	.
2F	.	2a	.	2f	.
*Xlig	*	*Xlig	*	*Xlig	*
=33	=33	=33	=33	=33	=33
*lig	*	*lig	*	*	*
2G	.	2g	.	2b-y	.
2D	.	2f	.	4a	.
.	.	.	.	8b-yL	.
.	.	.	.	8ccJ	.
*Xlig	*	*Xlig	*	*	*
=34	=34	=34	=34	=34	=34
*lig	*	*	*	*	*
2G	.	2b-y	.	4b-y	.
.	.	.	.	8aL	.
.	.	.	.	8gJ	.
2d	.	4a	.	2f	.
.	.	8b-yL	.	.	.
.	.	8ccJ	.	.	.
*Xlig	*	*	*	*	*
=35	=35	=35	=35	=35	=35
*	*	*	*	*lig	*
4r	.	4b-y	.	2b-y	.
4G	.	8aL	.	.	.
.	.	8gJ	.	.	.
2d	.	2f	.	2a	.
*	*	*	*	*Xlig	*
!!LO:LB:g=original
=36	=36	=36	=36	=36	=36
*lig	*	*lig	*	*	*
2G	.	2b-y	.	2g	.
2F	.	2a	.	4r	.
.	.	.	.	4d	.
*Xlig	*	*Xlig	*	*	*
=37	=37	=37	=37	=37	=37
*lig	*	*	*	*	*
2E	.	2g	.	2e	.
2D	.	4r	.	2f	.
.	.	4d	.	.	.
*Xlig	*	*	*	*	*
=38	=38	=38	=38	=38	=38
*lig	*	*	*	*	*
2G	.	2e	.	2g	.
2F	.	2f	.	4r	.
.	.	.	.	4d	.
*Xlig	*	*	*	*	*
=39	=39	=39	=39	=39	=39
*lig	*	*	*	*	*
2E	.	2g	.	2e	.
2D	.	4r	.	2f	.
.	.	4d	.	.	.
*Xlig	*	*	*	*	*
=40	=40	=40	=40	=40	=40
4r	.	2e	.	4g	.
4G	.	.	.	4b-y	.
4F	.	2f	.	4a	.
4A	.	.	.	4cc	.
=41	=41	=41	=41	=41	=41
2G	.	4g	.	4b-y	.
.	.	4b-y	.	8aL	.
.	.	.	.	8gJ	.
2D	.	4a	.	2f	.
.	.	4cc	.	.	.
!!LO:LB:g=original
=42	=42	=42	=42	=42	=42
*lig	*	*	*	*	*
2G	.	4b-y	.	4r	.
.	.	8aL	.	4g	.
.	.	8gJ	.	.	.
*	*	*	*	*lig	*
2d	.	2f	.	2a	.
*Xlig	*	*	*	*	*
=43	=43	=43	=43	=43	=43
2G	.	2g	.	2b-y	.
*	*	*	*	*Xlig	*
[2D	.	2f	.	4a	.
.	.	.	.	[4dd	.
=44	=44	=44	=44	=44	=44
2D]	.	1d	.	4dd]	.
.	.	.	.	4cc	.
2F	.	.	.	2a	.
=45	=45	=45	=45	=45	=45
*	*	*lig	*	*lig	*
4E	.	2g	.	2b-y	.
4G	.	.	.	.	.
2D	.	2f	.	[2a	.
*	*	*Xlig	*	*	*
=46	=46	=46	=46	=46	=46
*lig	*	*lig	*	*	*
1G	.	2g	.	4a]	.
*	*	*	*	*Xlig	*
.	.	.	.	4g	.
.	.	2b-y	.	[2g	.
=47	=47	=47	=47	=47	=47
1d	.	1a	.	2g]	.
.	.	.	.	2f#i	.
*	*	*Xlig	*	*	*
=48	=48	=48	=48	=48	=48
1Gl	.	1gl	.	1gl	.
*Xlig	*	*	*	*	*
==	==	==	==	==	==
*-	*-	*-	*-	*-	*-
!!!system-decoration: [*]
!!!RDF**kern: i = editorial accidental
!!!RDF**kern: l = terminal long
!!!PTL: Gaspar van Weerbeke: Collected Works. V. Settings of Liturgical Texts, Songs, and Instrumental Works
!!!PPR: American Institute of Musicology
!!!PC#: Corpus Mensurabilis Musicae 106/V
!!!PDT: 2020
!!!PED: Kolb, Paul
!!!EED: Zybina, Karina
!!!EEV: 2021/08/26
!!!Xfilter: gasparize
!!!RDF**kern: j = editorial accidental, optional, paren up
!!!RDF**kern: l = terminal long
!!!YEC: Copyright 2018, Kolb, Paul
!!!YEM: CC-BY-NC 4.0 (https://creativecommons.org/licenses/by-nc/4.0/legalcode)
